!!!OTL: ES REISTEN DREI SCHAEFER AUS BRESLAU RAUS
!!!ARE: Europa, Mitteleuropa, Deutschland, Schlesien, Liegnitz
!!!SCT: E1492
!!!YEM: Copyright 1995, estate of Helmut Schaffrath.
**kern
*ICvox
*Ivox
*M3/4
*k[f#]
*G:
{4d
=1
8g
8g
4g
4b
=2
8.b
16a
4.a}
{8g
=3
8.a
16a
4a
4cc
=4
4cc
4b}
{4d
=5
8g
8g
4g
4b
=6
8.b
16a
4.a}
{8g
=7
8.a
16a
4a
4cc
=8
4cc
4b
8r}
{8g
=9
8.dd
16dd
4.ee
8dd
=10
8.dd
16cc
4.cc}
{8cc
=11
8.b
16b
4b
4g
=12
8.a
16a
4a}
{4b
=13
2cc
4b
=14
2dd}
{4cc
=15
8.b
16b
8dd
8cc
4b
=16
4a
4g}
==
!!!AGN: Staende - Lied, Hirten -,  Schaefer - Lied
!!!ONB: ESAC (Essen Associative Code) Database: ERK3
!!!AMT: simple triple
!!!AIN: vox
!!!EED: Helmut Schaffrath
!!!EEV: 1.0
*-
